icons/cacheTypes/multi-inactive-untried-border.svg

<svg xmlns="http://www.w3.org/2000/svg" viewBox="0 0 24 24"><defs><style>.cls-1{fill:#fff}</style></defs><g id="Ebene_2" data-name="Ebene 2"><g id="Rand_weiß" data-name="Rand weiß"><rect width="24" height="24" class="cls-1" rx="5.75"/><rect width="24" height="24" class="cls-1" rx="5.75" transform="rotate(90 12 12)"/></g><rect id="Flächen_deaktiviert" width="20" height="20" x="2" y="2" data-name="Flächen deaktiviert" rx="3.75" style="fill:#afadac"/><g id="Symbole_weiß" data-name="Symbole weiß"><path d="M14.691 13.166v.575H4.156v-.575a1.728 1.728 0 0 1 1.723-1.723h7.089a1.728 1.728 0 0 1 1.723 1.723ZM13.755 14.576v3.342a1.728 1.728 0 0 1-1.723 1.723H6.815a1.728 1.728 0 0 1-1.723-1.723v-3.342Z" class="cls-1"/><path d="M10.245 10.193h2.723a2.976 2.976 0 0 1 2.973 2.973v.143h1.244a1.727 1.727 0 0 0 1.723-1.722V8.244h-8.663Zm7.876-5.081h-7.089a1.728 1.728 0 0 0-1.723 1.723v.574h10.535v-.574a1.728 1.728 0 0 0-1.723-1.723Z" class="cls-1"/></g></g></svg>

<svg xmlns="http://www.w3.org/2000/svg" viewBox="0 0 24 24"><defs><style>.cls-1{fill:#fff;}.cls-2{fill:#afadac;}</style></defs><g id="Ebene_2" data-name="Ebene 2"><g id="Rand_weiß" data-name="Rand weiß"><rect class="cls-1" width="24" height="24" rx="5.75"/><rect class="cls-1" width="24" height="24" rx="5.75" transform="translate(24) rotate(90)"/></g><g id="Flächen_deaktiviert" data-name="Flächen deaktiviert"><rect class="cls-2" x="2" y="2" width="20" height="20" rx="3.75"/></g><g id="Symbole_weiß" data-name="Symbole weiß"><path class="cls-1" d="M14.691,13.166v.575H4.156v-.575a1.728,1.728,0,0,1,1.723-1.723h7.089A1.728,1.728,0,0,1,14.691,13.166Z"/><path class="cls-1" d="M13.755,14.576v3.342a1.728,1.728,0,0,1-1.723,1.723H6.815a1.728,1.728,0,0,1-1.723-1.723V14.576Z"/><path class="cls-1" d="M10.245,10.193h2.723a2.976,2.976,0,0,1,2.973,2.973v.143h1.244a1.727,1.727,0,0,0,1.723-1.722V8.244H10.245Zm7.876-5.081H11.032A1.728,1.728,0,0,0,9.309,6.835v.574H19.844V6.835A1.728,1.728,0,0,0,18.121,5.112Z"/></g></g></svg>
